Catalina-dark/places/scalable/folder-cloud.svg

<?xml version="1.0" encoding="UTF-8" standalone="no"?>
<!-- Created with Inkscape (http://www.inkscape.org/) -->

<svg
   xmlns:dc="http://purl.org/dc/elements/1.1/"
   xmlns:cc="http://creativecommons.org/ns#"
   xmlns:rdf="http://www.w3.org/1999/02/22-rdf-syntax-ns#"
   xmlns:svg="http://www.w3.org/2000/svg"
   xmlns="http://www.w3.org/2000/svg"
   xmlns:xlink="http://www.w3.org/1999/xlink"
   xmlns:sodipodi="http://sodipodi.sourceforge.net/DTD/sodipodi-0.dtd"
   xmlns:inkscape="http://www.inkscape.org/namespaces/inkscape"
   version="1.1"
   id="svg2"
   width="128"
   height="128"
   viewBox="0 0 128 128"
   sodipodi:docname="folder-cloud.svg"
   inkscape:version="0.92.4 5da689c313, 2019-01-14">
  <metadata
     id="metadata8">
    <rdf:RDF>
      <cc:Work
         rdf:about="">
        <dc:format>image/svg+xml</dc:format>
        <dc:type
           rdf:resource="http://purl.org/dc/dcmitype/StillImage" />
        <dc:title></dc:title>
      </cc:Work>
    </rdf:RDF>
  </metadata>
  <defs
     id="defs6">
    <linearGradient
       id="linearGradient895"
       inkscape:collect="always">
      <stop
         id="stop891"
         offset="0"
         style="stop-color:#5291bd;stop-opacity:1" />
      <stop
         style="stop-color:#5291bd;stop-opacity:1"
         offset="0.12336344"
         id="stop898" />
      <stop
         id="stop893"
         offset="1"
         style="stop-color:#5e99b9;stop-opacity:1" />
    </linearGradient>
    <linearGradient
       id="linearGradient1052"
       inkscape:collect="always">
      <stop
         id="stop1040"
         offset="0"
         style="stop-color:#66aed7;stop-opacity:1" />
      <stop
         style="stop-color:#6cb1d7;stop-opacity:1"
         offset="0.33128312"
         id="stop1042" />
      <stop
         style="stop-color:#76b6d7;stop-opacity:1"
         offset="0.5047847"
         id="stop1044" />
      <stop
         id="stop1046"
         offset="0.60396028"
         style="stop-color:#7bb6d5;stop-opacity:1" />
      <stop
         style="stop-color:#77b2d0;stop-opacity:1"
         offset="0.80198014"
         id="stop1048" />
      <stop
         id="stop1050"
         offset="1"
         style="stop-color:#6aa4c2;stop-opacity:1" />
    </linearGradient>
    <linearGradient
       inkscape:collect="always"
       id="linearGradient849">
      <stop
         style="stop-color:#608ea7;stop-opacity:1"
         offset="0"
         id="stop845" />
      <stop
         id="stop853"
         offset="0.16504955"
         style="stop-color:#5887a2;stop-opacity:1" />
      <stop
         style="stop-color:#4e7890;stop-opacity:1;"
         offset="0.29030523"
         id="stop1065" />
      <stop
         style="stop-color:#4a7289;stop-opacity:1"
         offset="0.34926009"
         id="stop855" />
      <stop
         id="stop861"
         offset="0.38956389"
         style="stop-color:#345a6c;stop-opacity:1" />
      <stop
         id="stop857"
         offset="0.44399697"
         style="stop-color:#33586d;stop-opacity:1" />
      <stop
         style="stop-color:#4e88a4;stop-opacity:0;"
         offset="1"
         id="stop847" />
    </linearGradient>
    <linearGradient
       inkscape:collect="always"
       xlink:href="#linearGradient1052"
       id="linearGradient828"
       x1="655.15594"
       y1="211.50072"
       x2="655.15594"
       y2="419.85751"
       gradientUnits="userSpaceOnUse"
       gradientTransform="matrix(0.39478084,0,0,0.39478084,-194.76369,-40.484262)" />
    <linearGradient
       inkscape:collect="always"
       xlink:href="#linearGradient849"
       id="linearGradient859"
       gradientUnits="userSpaceOnUse"
       gradientTransform="matrix(0.39478084,0,0,0.39478084,167.73039,-51.641922)"
       x1="-286.85046"
       y1="201.41634"
       x2="-286.85046"
       y2="326.29895" />
    <filter
       inkscape:label="Film Grain"
       inkscape:menu="Image Effects"
       inkscape:menu-tooltip="Adds a small scale graininess"
       style="color-interpolation-filters:sRGB"
       id="filter898">
      <feTurbulence
         type="fractalNoise"
         numOctaves="3"
         baseFrequency="1"
         seed="0"
         result="result0"
         id="feTurbulence888" />
      <feColorMatrix
         result="result4"
         values="0"
         type="saturate"
         id="feColorMatrix890" />
      <feComposite
         in="SourceGraphic"
         in2="result4"
         operator="arithmetic"
         k1="1.25"
         k2="0.5"
         k3="0.5"
         result="result2"
         id="feComposite892"
         k4="0" />
      <feBlend
         result="result5"
         mode="normal"
         in="result2"
         in2="SourceGraphic"
         id="feBlend894" />
      <feComposite
         in="result5"
         in2="SourceGraphic"
         operator="in"
         result="result3"
         id="feComposite896" />
    </filter>
    <filter
       inkscape:label="Film Grain"
       inkscape:menu="Image Effects"
       inkscape:menu-tooltip="Adds a small scale graininess"
       style="color-interpolation-filters:sRGB;"
       id="filter883">
      <feTurbulence
         type="fractalNoise"
         numOctaves="3"
         baseFrequency="1"
         seed="0"
         result="result0"
         id="feTurbulence873" />
      <feColorMatrix
         result="result4"
         values="0"
         type="saturate"
         id="feColorMatrix875" />
      <feComposite
         in="SourceGraphic"
         in2="result4"
         operator="arithmetic"
         k1="1.25"
         k2="0.5"
         k3="0.5"
         result="result2"
         id="feComposite877" />
      <feBlend
         result="result5"
         mode="normal"
         in="result2"
         in2="SourceGraphic"
         id="feBlend879" />
      <feComposite
         in="result5"
         in2="SourceGraphic"
         operator="in"
         result="result3"
         id="feComposite881" />
    </filter>
    <filter
       inkscape:label="Cross Noise"
       inkscape:menu="Overlays"
       inkscape:menu-tooltip="Adds a small scale screen like graininess"
       style="color-interpolation-filters:sRGB;"
       id="filter904">
      <feTurbulence
         type="fractalNoise"
         numOctaves="5"
         baseFrequency="1"
         seed="0"
         result="result0"
         id="feTurbulence892" />
      <feConvolveMatrix
         kernelMatrix="-2 0 -2 0 -10 0 -2 0 -2 "
         order="3 3"
         result="result5"
         id="feConvolveMatrix894" />
      <feColorMatrix
         result="result4"
         values="0"
         type="saturate"
         in="result5"
         id="feColorMatrix896" />
      <feComposite
         in2="result4"
         in="SourceGraphic"
         operator="arithmetic"
         k1="1.5"
         k2="0.5"
         k3="0.5"
         result="result2"
         id="feComposite898" />
      <feBlend
         result="result6"
         in2="result4"
         mode="normal"
         id="feBlend900" />
      <feComposite
         in2="SourceGraphic"
         in="result6"
         operator="in"
         result="result3"
         id="feComposite902" />
    </filter>
    <linearGradient
       inkscape:collect="always"
       xlink:href="#linearGradient895"
       id="linearGradient1027"
       x1="3.9095521"
       y1="49.420879"
       x2="3.9095521"
       y2="92.463165"
       gradientUnits="userSpaceOnUse"
       gradientTransform="translate(65.908564,7.8626248)" />
    <linearGradient
       id="linearGradient4885">
      <stop
         style="stop-color:#1296d5;stop-opacity:1;"
         offset="0"
         id="stop4881" />
      <stop
         style="stop-color:#4fb6e8;stop-opacity:1"
         offset="1"
         id="stop4883" />
    </linearGradient>
    <style
       id="current-color-scheme"
       type="text/css">
      .ColorScheme-Text {
        color:#4d4d4d;
      }
      </style>
    <linearGradient
       id="linearGradient3866">
      <stop
         id="stop3868"
         offset="0"
         style="stop-color:#000000;stop-opacity:0.52083331" />
      <stop
         id="stop3870"
         offset="1"
         style="stop-color:#2883c3;stop-opacity:0;" />
    </linearGradient>
    <linearGradient
       id="linearGradient3874">
      <stop
         id="stop3876"
         offset="0"
         style="stop-color:#000d0e;stop-opacity:0.84105963;" />
      <stop
         id="stop3878"
         offset="1"
         style="stop-color:#000000;stop-opacity:0;" />
    </linearGradient>
    <style
       id="current-color-scheme-3"
       type="text/css">
      .ColorScheme-Text {
        color:#4d4d4d;
      }
      </style>
    <linearGradient
       xlink:href="#linearGradient4885"
       id="linearGradient4887"
       x1="40.32296"
       y1="61.076542"
       x2="40.407059"
       y2="77.951225"
       gradientUnits="userSpaceOnUse"
       gradientTransform="matrix(3.4414163,0,0,3.4414163,-108.21937,-167.46781)" />
  </defs>
  <sodipodi:namedview
     pagecolor="#ffffff"
     bordercolor="#666666"
     borderopacity="1"
     objecttolerance="10"
     gridtolerance="10"
     guidetolerance="10"
     inkscape:pageopacity="0"
     inkscape:pageshadow="2"
     inkscape:window-width="1920"
     inkscape:window-height="1031"
     id="namedview4"
     showgrid="false"
     inkscape:zoom="2.151625"
     inkscape:cx="61.836386"
     inkscape:cy="42.047405"
     inkscape:window-x="0"
     inkscape:window-y="26"
     inkscape:window-maximized="1"
     inkscape:current-layer="svg2" />
  <path
     style="opacity:1;fill:url(#linearGradient859);fill-opacity:1;stroke:none;stroke-width:0.78956169;stroke-linecap:round;stroke-linejoin:round;stroke-miterlimit:4;stroke-dasharray:none;stroke-dashoffset:0;stroke-opacity:0.85098039;paint-order:fill markers stroke"
     d="m 7.93424,28.214947 c -3.39101,0 -6.12143,2.72966 -6.12143,6.12064 v 27.21058 c 19.29378,15.45725 121.85448,17.08511 124.92215,4.10729 v -21.8277 c 0,-3.39099 -2.73042,-6.12065 -6.12139,-6.12065 H 48.99014 c -3.59598,0 -5.76696,-4.55304 -8.20378,-7.85362 -1.09185,-1.01636 -2.5579,-1.63654 -4.17426,-1.63654 z"
     id="rect838"
     inkscape:connector-curvature="0"
     sodipodi:nodetypes="ssccssscss" />
  <path
     style="opacity:1;fill:url(#linearGradient828);fill-opacity:1;stroke:none;stroke-width:0.78956169;stroke-linecap:round;stroke-linejoin:round;stroke-miterlimit:4;stroke-dasharray:none;stroke-dashoffset:0;stroke-opacity:0.85098039;paint-order:fill markers stroke"
     d="m 8.38437,43.357317 c -3.61237,0 -6.52083,2.90771 -6.52083,6.52005 v 27.21443 42.088113 3.24383 c 0,1.81543 1.46155,3.27699 3.27699,3.27699 h 3.24384 111.81164 3.24305 c 1.81544,0 3.27699,-1.46156 3.27699,-3.27699 v -3.24383 -42.088113 -27.21443 c 0,-3.61234 -2.90771,-6.52005 -6.52004,-6.52005 z"
     id="rect817"
     inkscape:connector-curvature="0" />
  <path
     inkscape:connector-curvature="0"
     style="opacity:1;fill:#ebf5fa;fill-opacity:0.23626374;stroke:none;stroke-width:0.78956169;stroke-linecap:round;stroke-linejoin:round;stroke-miterlimit:4;stroke-dasharray:none;stroke-dashoffset:0;stroke-opacity:0.85098039;paint-order:fill markers stroke"
     d="m 8.38402,43.357187 c -3.61236,0 -6.52082,2.90772 -6.52082,6.52005 v 0.27527 c 0,-3.61233 2.90846,-6.52005 6.52082,-6.52005 h 111.81165 c 3.61232,0 6.52005,2.90772 6.52005,6.52005 v -0.27527 c 0,-3.61233 -2.90773,-6.52005 -6.52005,-6.52005 z"
     id="path904" />
  <path
     style="fill:none;stroke:#ffffff;stroke-width:0.31582469;stroke-linecap:butt;stroke-linejoin:miter;stroke-miterlimit:4;stroke-dasharray:none;stroke-opacity:0.2527473"
     d="M 2.09504,115.95084 H 126.38613"
     id="path909"
     inkscape:connector-curvature="0" />
  <g
     id="g925"
     transform="matrix(0.39478084,0,0,0.39478084,-44.90948,-40.528782)">
    <path
       inkscape:connector-curvature="0"
       id="path919"
       d="M 118.62489,404.50427 H 433.46057"
       style="fill:none;stroke:#ffffff;stroke-width:0.80000001;stroke-linecap:butt;stroke-linejoin:miter;stroke-miterlimit:4;stroke-dasharray:none;stroke-opacity:0.18681317" />
    <path
       style="fill:none;stroke:#22394c;stroke-width:0.80000001;stroke-linecap:butt;stroke-linejoin:miter;stroke-miterlimit:4;stroke-dasharray:none;stroke-opacity:0.27472528"
       d="M 118.62489,403.68267 H 433.46057"
       id="path921"
       inkscape:connector-curvature="0" />
  </g>
  <g
     id="g931"
     transform="matrix(0.39478084,0,0,0.39478084,-44.90948,-37.088532)">
    <path
       style="fill:none;stroke:#ffffff;stroke-width:0.80000001;stroke-linecap:butt;stroke-linejoin:miter;stroke-miterlimit:4;stroke-dasharray:none;stroke-opacity:0.18681317"
       d="M 118.62489,404.50427 H 433.46057"
       id="path927"
       inkscape:connector-curvature="0" />
    <path
       inkscape:connector-curvature="0"
       id="path929"
       d="M 118.62489,403.68267 H 433.46057"
       style="fill:none;stroke:#22394c;stroke-width:0.80000001;stroke-linecap:butt;stroke-linejoin:miter;stroke-miterlimit:4;stroke-dasharray:none;stroke-opacity:0.29670332" />
  </g>
  <path
     style="opacity:1;fill:url(#linearGradient1027);fill-opacity:1;stroke-width:2.2138629"
     d="m 69.818116,57.283506 c -7.683621,0 -14.292113,4.429473 -17.207033,10.77539 -1.559199,-1.209574 -3.518421,-1.927734 -5.644531,-1.927734 -5.00825,0 -9.082887,3.995404 -9.210937,8.972656 -5.16954,1.938826 -8.849609,6.924991 -8.849609,12.771485 0,6.90645 5.134871,12.614007 11.794921,13.513667 v 0.12305 h 47.177735 v -0.0215 c 6.57783,-0.38156 11.794922,-5.836445 11.794922,-12.509765 0,-6.435704 -4.852206,-11.739525 -11.097656,-12.451171 0.0265,-0.392353 0.03906,-0.786732 0.03906,-1.185547 0,-9.97404 -8.415476,-18.060547 -18.796875,-18.060547 z"
     id="path980-7"
     inkscape:connector-curvature="0"
     sodipodi:nodetypes="scscsccccscss" />
  <path
     style="opacity:1;fill:#264a63;fill-opacity:0.0934066;stroke-width:2.2138629"
     d="M 69.818359 57.283203 C 62.134738 57.283203 55.526248 61.712677 52.611328 68.058594 C 51.052129 66.84902 49.092907 66.130859 46.966797 66.130859 C 41.958547 66.130859 37.883909 70.126264 37.755859 75.103516 C 32.586319 77.042342 28.90625 82.028506 28.90625 87.875 C 28.90625 88.129001 28.927695 88.378328 28.941406 88.628906 C 29.287407 83.163552 32.846082 78.571871 37.755859 76.730469 C 37.883909 71.753217 41.958547 67.757812 46.966797 67.757812 C 49.092907 67.757812 51.052129 68.475973 52.611328 69.685547 C 55.526248 63.33963 62.134738 58.910156 69.818359 58.910156 C 79.980044 58.910156 88.236183 66.66368 88.582031 76.345703 C 88.600807 76.013529 88.615234 75.680807 88.615234 75.34375 C 88.615234 65.36971 80.199758 57.283203 69.818359 57.283203 z M 88.591797 76.53125 C 88.595503 76.67882 88.615234 76.822277 88.615234 76.970703 C 88.615234 77.369518 88.602672 77.763897 88.576172 78.15625 C 94.551388 78.837104 99.239231 83.723922 99.634766 89.78125 C 99.651609 89.515353 99.673828 89.250614 99.673828 88.980469 C 99.673828 82.550177 94.82965 77.250013 88.591797 76.53125 z "
     id="path950" />
</svg>

<svg width="128" height="128" version="1.1" viewBox="0 0 128 128" xmlns="http://www.w3.org/2000/svg">
<defs>
<linearGradient id="linearGradient828" x1="655.16" x2="655.16" y1="211.5" y2="419.86" gradientTransform="matrix(.39478 0 0 .39478 -194.76 -40.484)" gradientUnits="userSpaceOnUse"/>
<linearGradient id="linearGradient859" x1="-286.85" x2="-286.85" y1="201.42" y2="326.3" gradientTransform="matrix(.39478 0 0 .39478 167.73 -51.642)" gradientUnits="userSpaceOnUse"/>
<linearGradient id="linearGradient1027" x1="3.9096" x2="3.9096" y1="49.421" y2="92.463" gradientTransform="translate(65.909 7.8626)" gradientUnits="userSpaceOnUse"/>
<style id="current-color-scheme" type="text/css">.ColorScheme-Text {
        color:#4d4d4d;
      }</style>
<style id="current-color-scheme-3" type="text/css">.ColorScheme-Text {
        color:#4d4d4d;
      }</style>
</defs>
<path d="m7.9342 28.215c-3.391 0-6.1214 2.7297-6.1214 6.1206v27.211c19.294 15.457 121.85 17.085 124.92 4.1073v-21.828c0-3.391-2.7304-6.1206-6.1214-6.1206h-71.623c-3.596 0-5.767-4.553-8.2038-7.8536-1.0918-1.0164-2.5579-1.6365-4.1743-1.6365z" fill="url(#linearGradient859)" style="paint-order:fill markers stroke"/>
<path d="m8.3844 43.357c-3.6124 0-6.5208 2.9077-6.5208 6.52v72.546c0 1.8154 1.4616 3.277 3.277 3.277h118.3c1.8154 0 3.277-1.4616 3.277-3.277v-72.546c0-3.6123-2.9077-6.52-6.52-6.52z" fill="url(#linearGradient828)" style="paint-order:fill markers stroke"/>
<path d="m8.384 43.357c-3.6124 0-6.5208 2.9077-6.5208 6.52v0.27527c0-3.6123 2.9085-6.52 6.5208-6.52h111.81c3.6123 0 6.52 2.9077 6.52 6.52v-0.27527c0-3.6123-2.9077-6.52-6.52-6.52z" fill="#ebf5fa" fill-opacity=".23626" style="paint-order:fill markers stroke"/>
<path d="m2.095 115.95h124.29" fill="none" stroke="#fff" stroke-opacity=".25275" stroke-width=".31582"/>
<g transform="matrix(.39478 0 0 .39478 -44.909 -40.529)" fill="none" stroke-width=".8">
<path d="m118.62 404.5h314.84" stroke="#fff" stroke-opacity=".18681"/>
<path d="m118.62 403.68h314.84" stroke="#22394c" stroke-opacity=".27473"/>
</g>
<g transform="matrix(.39478 0 0 .39478 -44.909 -37.089)" fill="none" stroke-width=".8">
<path d="m118.62 404.5h314.84" stroke="#fff" stroke-opacity=".18681"/>
<path d="m118.62 403.68h314.84" stroke="#22394c" stroke-opacity=".2967"/>
</g>
<path d="m69.818 57.284c-7.6836 0-14.292 4.4295-17.207 10.775-1.5592-1.2096-3.5184-1.9277-5.6445-1.9277-5.0082 0-9.0829 3.9954-9.2109 8.9727-5.1695 1.9388-8.8496 6.925-8.8496 12.771 0 6.9064 5.1349 12.614 11.795 13.514v0.12305h47.178v-0.0215c6.5778-0.38156 11.795-5.8364 11.795-12.51 0-6.4357-4.8522-11.74-11.098-12.451 0.0265-0.39235 0.03906-0.78673 0.03906-1.1855 0-9.974-8.4155-18.061-18.797-18.061z" fill="url(#linearGradient1027)" stroke-width="2.2139"/>
<path d="m69.818 57.283c-7.6836 0-14.292 4.4295-17.207 10.775-1.5592-1.2096-3.5184-1.9277-5.6445-1.9277-5.0082 0-9.0829 3.9954-9.2109 8.9727-5.1695 1.9388-8.8496 6.925-8.8496 12.771 0 0.254 0.021445 0.50333 0.035156 0.75391 0.346-5.4654 3.9047-10.057 8.8145-11.898 0.12805-4.9773 4.2027-8.9727 9.2109-8.9727 2.1261 0 4.0853 0.71816 5.6445 1.9277 2.9149-6.3459 9.5234-10.775 17.207-10.775 10.162 0 18.418 7.7535 18.764 17.436 0.018776-0.33217 0.033203-0.6649 0.033203-1.002 0-9.974-8.4155-18.061-18.797-18.061zm18.773 19.248c0.003706 0.14757 0.023437 0.29103 0.023437 0.43945 0 0.39882-0.012562 0.79319-0.039062 1.1855 5.9752 0.68085 10.663 5.5677 11.059 11.625 0.016843-0.2659 0.039062-0.53064 0.039062-0.80078 0-6.4303-4.8442-11.73-11.082-12.449z" fill="#264a63" fill-opacity=".093407" stroke-width="2.2139"/>
</svg>
